X:249
T: BRUEDER REICHT DIE HAND ZUM BUNDE
N: B0297
O: Europa, Mitteleuropa, Deutschland
R: Stimmungs - Lied, Freude, Freundschaft, Freimaurer - Gesang
M: 3/4
L: 1/8
K: F
 | c4B2 | A4Bc | d4c2 | cBB2z2
B4A2 | G4AB | c4B2 | BAA2z2
=B4c2 | d4e2 | f2d2=B2 | c4z2
G4A2 | c2B2G2 | A4dB | A2G2z2
G4A2 | c2B2G2 | A4dB | A2G2z2
B4A2 | d4c2 | cBA2G2 | A4z2
d4c2 | e4f2 | cBA2G2 | F4z2
G4A2 | c2B2G2 | A4dB | A2G2z2
G4A2 | c2B2G2 | A4dB | A2G2z2
B4A2 | d4c2 | cBA2G2 | A4z2
d4c2 | e4f2 | cBA2G2 | F4z2

